images/5459515.svg

<?xml version="1.0" encoding="UTF-8"?>
<svg xmlns="http://www.w3.org/2000/svg" xmlns:xlink="http://www.w3.org/1999/xlink" width="300pt" height="300pt" viewBox="0 0 300 300" version="1.1">
<defs>
<g>
<symbol overflow="visible" id="glyph0-0">
<path style="stroke:none;" d="M 0.453125 1.59375 L 0.453125 -6.34375 L 4.953125 -6.34375 L 4.953125 1.59375 Z M 0.953125 1.09375 L 4.453125 1.09375 L 4.453125 -5.84375 L 0.953125 -5.84375 Z M 0.953125 1.09375 "/>
</symbol>
<symbol overflow="visible" id="glyph0-1">
<path style="stroke:none;" d="M 3.546875 -5.953125 C 2.898438 -5.953125 2.382812 -5.710938 2 -5.234375 C 1.625 -4.753906 1.4375 -4.101562 1.4375 -3.28125 C 1.4375 -2.445312 1.625 -1.789062 2 -1.3125 C 2.382812 -0.832031 2.898438 -0.59375 3.546875 -0.59375 C 4.191406 -0.59375 4.703125 -0.832031 5.078125 -1.3125 C 5.453125 -1.789062 5.640625 -2.445312 5.640625 -3.28125 C 5.640625 -4.101562 5.453125 -4.753906 5.078125 -5.234375 C 4.703125 -5.710938 4.191406 -5.953125 3.546875 -5.953125 Z M 3.546875 -6.6875 C 4.460938 -6.6875 5.195312 -6.375 5.75 -5.75 C 6.300781 -5.132812 6.578125 -4.3125 6.578125 -3.28125 C 6.578125 -2.238281 6.300781 -1.410156 5.75 -0.796875 C 5.195312 -0.179688 4.460938 0.125 3.546875 0.125 C 2.617188 0.125 1.878906 -0.179688 1.328125 -0.796875 C 0.773438 -1.410156 0.5 -2.238281 0.5 -3.28125 C 0.5 -4.3125 0.773438 -5.132812 1.328125 -5.75 C 1.878906 -6.375 2.617188 -6.6875 3.546875 -6.6875 Z M 3.546875 -6.6875 "/>
</symbol>
<symbol overflow="visible" id="glyph0-2">
<path style="stroke:none;" d="M 0.890625 -6.5625 L 2.078125 -6.5625 L 4.984375 -1.078125 L 4.984375 -6.5625 L 5.84375 -6.5625 L 5.84375 0 L 4.65625 0 L 1.75 -5.484375 L 1.75 0 L 0.890625 0 Z M 0.890625 -6.5625 "/>
</symbol>
</g>
</defs>
<g id="surface40209">
<rect x="0" y="0" width="300" height="300" style="fill:rgb(100%,100%,100%);fill-opacity:1;stroke:none;"/>
<path style="fill:none;stroke-width:1.2;stroke-linecap:butt;stroke-linejoin:miter;stroke:rgb(0%,0%,0%);stroke-opacity:1;stroke-miterlimit:10;" d="M 98.632812 184.347656 L 85.902344 167.605469 "/>
<path style="fill:none;stroke-width:1.2;stroke-linecap:butt;stroke-linejoin:miter;stroke:rgb(0%,0%,0%);stroke-opacity:1;stroke-miterlimit:10;" d="M 85.902344 167.605469 L 103.886719 156.691406 "/>
<path style="fill:none;stroke-width:1.2;stroke-linecap:butt;stroke-linejoin:miter;stroke:rgb(0%,0%,0%);stroke-opacity:1;stroke-miterlimit:10;" d="M 85.902344 167.605469 L 70.582031 182.015625 "/>
<path style="fill:none;stroke-width:1.2;stroke-linecap:butt;stroke-linejoin:miter;stroke:rgb(0%,0%,0%);stroke-opacity:1;stroke-miterlimit:10;" d="M 69.96875 153.875 L 85.902344 167.605469 "/>
<path style="fill:none;stroke-width:1.2;stroke-linecap:butt;stroke-linejoin:miter;stroke:rgb(0%,0%,0%);stroke-opacity:1;stroke-miterlimit:10;" d="M 103.886719 156.691406 L 124.027344 162.753906 "/>
<path style="fill:none;stroke-width:1.2;stroke-linecap:butt;stroke-linejoin:miter;stroke:rgb(0%,0%,0%);stroke-opacity:1;stroke-miterlimit:10;" d="M 107.324219 152.558594 L 123.4375 157.410156 "/>
<path style="fill:none;stroke-width:1.2;stroke-linecap:butt;stroke-linejoin:miter;stroke:rgb(0%,0%,0%);stroke-opacity:1;stroke-miterlimit:10;" d="M 99.0625 136.21875 L 103.886719 156.691406 "/>
<path style="fill:none;stroke-width:1.2;stroke-linecap:butt;stroke-linejoin:miter;stroke:rgb(0%,0%,0%);stroke-opacity:1;stroke-miterlimit:10;" d="M 124.027344 162.753906 L 139.347656 148.34375 "/>
<path style="fill:none;stroke-width:1.2;stroke-linecap:butt;stroke-linejoin:miter;stroke:rgb(0%,0%,0%);stroke-opacity:1;stroke-miterlimit:10;" d="M 139.347656 148.34375 L 160.308594 150.085938 "/>
<path style="fill:none;stroke-width:1.2;stroke-linecap:butt;stroke-linejoin:miter;stroke:rgb(0%,0%,0%);stroke-opacity:1;stroke-miterlimit:10;" d="M 139.347656 148.34375 L 146.28125 168.199219 "/>
<path style="fill:none;stroke-width:1.2;stroke-linecap:butt;stroke-linejoin:miter;stroke:rgb(0%,0%,100%);stroke-opacity:1;stroke-miterlimit:10;" d="M 134.527344 127.871094 L 136.9375 138.105469 "/>
<path style="fill:none;stroke-width:1.2;stroke-linecap:butt;stroke-linejoin:miter;stroke:rgb(0%,0%,0%);stroke-opacity:1;stroke-miterlimit:10;" d="M 136.9375 138.105469 L 139.347656 148.34375 "/>
<path style="fill:none;stroke-width:1.2;stroke-linecap:butt;stroke-linejoin:miter;stroke:rgb(0%,0%,0%);stroke-opacity:1;stroke-miterlimit:10;" d="M 158.191406 151.367188 L 163.648438 160.359375 "/>
<path style="fill:none;stroke-width:1.2;stroke-linecap:butt;stroke-linejoin:miter;stroke:rgb(100%,0%,0%);stroke-opacity:1;stroke-miterlimit:10;" d="M 163.648438 160.359375 L 169.105469 169.351562 "/>
<path style="fill:none;stroke-width:1.2;stroke-linecap:butt;stroke-linejoin:miter;stroke:rgb(0%,0%,0%);stroke-opacity:1;stroke-miterlimit:10;" d="M 162.421875 148.800781 L 167.878906 157.792969 "/>
<path style="fill:none;stroke-width:1.2;stroke-linecap:butt;stroke-linejoin:miter;stroke:rgb(100%,0%,0%);stroke-opacity:1;stroke-miterlimit:10;" d="M 167.878906 157.792969 L 173.335938 166.785156 "/>
<path style="fill:none;stroke-width:1.2;stroke-linecap:butt;stroke-linejoin:miter;stroke:rgb(0%,0%,0%);stroke-opacity:1;stroke-miterlimit:10;" d="M 160.308594 150.085938 L 164.375 140.386719 "/>
<path style="fill:none;stroke-width:1.2;stroke-linecap:butt;stroke-linejoin:miter;stroke:rgb(0%,0%,100%);stroke-opacity:1;stroke-miterlimit:10;" d="M 164.375 140.386719 L 168.441406 130.6875 "/>
<path style=" stroke:none;fill-rule:nonzero;fill:rgb(100%,100%,100%);fill-opacity:1;" d="M 167.21875 162.566406 L 175.21875 162.566406 L 175.21875 173.566406 L 167.21875 173.566406 Z M 167.21875 162.566406 "/>
<g style="fill:rgb(100%,0%,0%);fill-opacity:1;">
  <use xlink:href="#glyph0-1" x="167.21875" y="171.229492"/>
</g>
<path style="fill:none;stroke-width:1.2;stroke-linecap:butt;stroke-linejoin:miter;stroke:rgb(0%,0%,100%);stroke-opacity:1;stroke-miterlimit:10;" d="M 168.441406 130.6875 L 160.476562 123.824219 "/>
<path style="fill:none;stroke-width:1.2;stroke-linecap:butt;stroke-linejoin:miter;stroke:rgb(0%,0%,0%);stroke-opacity:1;stroke-miterlimit:10;" d="M 160.476562 123.824219 L 152.507812 116.957031 "/>
<path style="fill:none;stroke-width:1.2;stroke-linecap:butt;stroke-linejoin:miter;stroke:rgb(0%,0%,100%);stroke-opacity:1;stroke-miterlimit:10;" d="M 168.441406 130.6875 L 178.679688 128.277344 "/>
<path style="fill:none;stroke-width:1.2;stroke-linecap:butt;stroke-linejoin:miter;stroke:rgb(0%,0%,0%);stroke-opacity:1;stroke-miterlimit:10;" d="M 178.679688 128.277344 L 188.917969 125.867188 "/>
<path style=" stroke:none;fill-rule:nonzero;fill:rgb(100%,100%,100%);fill-opacity:1;" d="M 165.441406 125.1875 L 172.441406 125.1875 L 172.441406 136.1875 L 165.441406 136.1875 Z M 165.441406 125.1875 "/>
<g style="fill:rgb(0%,0%,100%);fill-opacity:1;">
  <use xlink:href="#glyph0-2" x="165.441406" y="133.850586"/>
</g>
<path style="fill:none;stroke-width:1.2;stroke-linecap:butt;stroke-linejoin:miter;stroke:rgb(0%,0%,0%);stroke-opacity:1;stroke-miterlimit:10;" d="M 154.972656 117.164062 L 155.84375 106.679688 "/>
<path style="fill:none;stroke-width:1.2;stroke-linecap:butt;stroke-linejoin:miter;stroke:rgb(100%,0%,0%);stroke-opacity:1;stroke-miterlimit:10;" d="M 155.84375 106.679688 L 156.714844 96.199219 "/>
<path style="fill:none;stroke-width:1.2;stroke-linecap:butt;stroke-linejoin:miter;stroke:rgb(0%,0%,0%);stroke-opacity:1;stroke-miterlimit:10;" d="M 150.042969 116.753906 L 150.914062 106.273438 "/>
<path style="fill:none;stroke-width:1.2;stroke-linecap:butt;stroke-linejoin:miter;stroke:rgb(100%,0%,0%);stroke-opacity:1;stroke-miterlimit:10;" d="M 150.914062 106.273438 L 151.785156 95.789062 "/>
<path style="fill:none;stroke-width:1.2;stroke-linecap:butt;stroke-linejoin:miter;stroke:rgb(0%,0%,0%);stroke-opacity:1;stroke-miterlimit:10;" d="M 152.507812 116.957031 L 143.515625 122.414062 "/>
<path style="fill:none;stroke-width:1.2;stroke-linecap:butt;stroke-linejoin:miter;stroke:rgb(0%,0%,100%);stroke-opacity:1;stroke-miterlimit:10;" d="M 143.515625 122.414062 L 134.527344 127.871094 "/>
<path style=" stroke:none;fill-rule:nonzero;fill:rgb(100%,100%,100%);fill-opacity:1;" d="M 150.25 90.496094 L 158.25 90.496094 L 158.25 101.496094 L 150.25 101.496094 Z M 150.25 90.496094 "/>
<g style="fill:rgb(100%,0%,0%);fill-opacity:1;">
  <use xlink:href="#glyph0-1" x="150.25" y="99.15918"/>
</g>
<path style="fill:none;stroke-width:1.2;stroke-linecap:butt;stroke-linejoin:miter;stroke:rgb(0%,0%,100%);stroke-opacity:1;stroke-miterlimit:10;" d="M 134.527344 127.871094 L 124.453125 124.839844 "/>
<path style="fill:none;stroke-width:1.2;stroke-linecap:butt;stroke-linejoin:miter;stroke:rgb(0%,0%,0%);stroke-opacity:1;stroke-miterlimit:10;" d="M 124.453125 124.839844 L 114.382812 121.808594 "/>
<path style=" stroke:none;fill-rule:nonzero;fill:rgb(100%,100%,100%);fill-opacity:1;" d="M 131.527344 122.371094 L 138.527344 122.371094 L 138.527344 133.371094 L 131.527344 133.371094 Z M 131.527344 122.371094 "/>
<g style="fill:rgb(0%,0%,100%);fill-opacity:1;">
  <use xlink:href="#glyph0-2" x="131.527344" y="131.03418"/>
</g>
<path style="fill:none;stroke-width:1.2;stroke-linecap:butt;stroke-linejoin:miter;stroke:rgb(0%,0%,0%);stroke-opacity:1;stroke-miterlimit:10;" d="M 114.382812 121.808594 L 99.0625 136.21875 "/>
<path style="fill:none;stroke-width:1.2;stroke-linecap:butt;stroke-linejoin:miter;stroke:rgb(0%,0%,0%);stroke-opacity:1;stroke-miterlimit:10;" d="M 99.0625 136.21875 L 78.101562 134.476562 "/>
<path style="fill:none;stroke-width:1.2;stroke-linecap:butt;stroke-linejoin:miter;stroke:rgb(0%,0%,0%);stroke-opacity:1;stroke-miterlimit:10;" d="M 96.558594 140.976562 L 79.789062 139.582031 "/>
<path style="fill:none;stroke-width:1.2;stroke-linecap:butt;stroke-linejoin:miter;stroke:rgb(0%,0%,0%);stroke-opacity:1;stroke-miterlimit:10;" d="M 78.101562 134.476562 L 69.96875 153.875 "/>
<path style="fill:none;stroke-width:1.2;stroke-linecap:butt;stroke-linejoin:miter;stroke:rgb(0%,0%,0%);stroke-opacity:1;stroke-miterlimit:10;" d="M 78.101562 134.476562 L 67.191406 116.496094 "/>
<path style="fill:none;stroke-width:1.2;stroke-linecap:butt;stroke-linejoin:miter;stroke:rgb(0%,0%,0%);stroke-opacity:1;stroke-miterlimit:10;" d="M 69.402344 151.464844 L 59.164062 153.875 "/>
<path style="fill:none;stroke-width:1.2;stroke-linecap:butt;stroke-linejoin:miter;stroke:rgb(100%,0%,0%);stroke-opacity:1;stroke-miterlimit:10;" d="M 59.164062 153.875 L 48.925781 156.285156 "/>
<path style="fill:none;stroke-width:1.2;stroke-linecap:butt;stroke-linejoin:miter;stroke:rgb(0%,0%,0%);stroke-opacity:1;stroke-miterlimit:10;" d="M 70.535156 156.285156 L 60.296875 158.695312 "/>
<path style="fill:none;stroke-width:1.2;stroke-linecap:butt;stroke-linejoin:miter;stroke:rgb(100%,0%,0%);stroke-opacity:1;stroke-miterlimit:10;" d="M 60.296875 158.695312 L 50.0625 161.105469 "/>
<path style=" stroke:none;fill-rule:nonzero;fill:rgb(100%,100%,100%);fill-opacity:1;" d="M 41.496094 153.195312 L 49.496094 153.195312 L 49.496094 164.195312 L 41.496094 164.195312 Z M 41.496094 153.195312 "/>
<g style="fill:rgb(100%,0%,0%);fill-opacity:1;">
  <use xlink:href="#glyph0-1" x="41.496094" y="161.858398"/>
</g>
<path style="fill:none;stroke-width:1.2;stroke-linecap:butt;stroke-linejoin:miter;stroke:rgb(0%,0%,0%);stroke-opacity:1;stroke-miterlimit:10;" d="M 67.191406 116.496094 L 77.308594 98.054688 "/>
<path style="fill:none;stroke-width:1.2;stroke-linecap:butt;stroke-linejoin:miter;stroke:rgb(0%,0%,0%);stroke-opacity:1;stroke-miterlimit:10;" d="M 63.863281 112.269531 L 71.957031 97.519531 "/>
<path style="fill:none;stroke-width:1.2;stroke-linecap:butt;stroke-linejoin:miter;stroke:rgb(0%,0%,0%);stroke-opacity:1;stroke-miterlimit:10;" d="M 46.160156 116.953125 L 67.191406 116.496094 "/>
<path style="fill:none;stroke-width:1.2;stroke-linecap:butt;stroke-linejoin:miter;stroke:rgb(0%,0%,0%);stroke-opacity:1;stroke-miterlimit:10;" d="M 77.308594 98.054688 L 66.394531 80.070312 "/>
<path style="fill:none;stroke-width:1.2;stroke-linecap:butt;stroke-linejoin:miter;stroke:rgb(0%,0%,0%);stroke-opacity:1;stroke-miterlimit:10;" d="M 66.394531 80.070312 L 45.367188 80.53125 "/>
<path style="fill:none;stroke-width:1.2;stroke-linecap:butt;stroke-linejoin:miter;stroke:rgb(0%,0%,0%);stroke-opacity:1;stroke-miterlimit:10;" d="M 64.402344 85.066406 L 47.578125 85.433594 "/>
<path style="fill:none;stroke-width:1.2;stroke-linecap:butt;stroke-linejoin:miter;stroke:rgb(0%,0%,0%);stroke-opacity:1;stroke-miterlimit:10;" d="M 45.367188 80.53125 L 35.25 98.972656 "/>
<path style="fill:none;stroke-width:1.2;stroke-linecap:butt;stroke-linejoin:miter;stroke:rgb(0%,0%,0%);stroke-opacity:1;stroke-miterlimit:10;" d="M 35.25 98.972656 L 46.160156 116.953125 "/>
<path style="fill:none;stroke-width:1.2;stroke-linecap:butt;stroke-linejoin:miter;stroke:rgb(0%,0%,0%);stroke-opacity:1;stroke-miterlimit:10;" d="M 40.570312 98.203125 L 49.300781 112.589844 "/>
<path style="fill:none;stroke-width:1.2;stroke-linecap:butt;stroke-linejoin:miter;stroke:rgb(0%,0%,0%);stroke-opacity:1;stroke-miterlimit:10;" d="M 188.917969 125.867188 L 203.328125 141.1875 "/>
<path style="fill:none;stroke-width:1.2;stroke-linecap:butt;stroke-linejoin:miter;stroke:rgb(0%,0%,0%);stroke-opacity:1;stroke-miterlimit:10;" d="M 203.328125 141.1875 L 223.800781 136.367188 "/>
<path style="fill:none;stroke-width:1.2;stroke-linecap:butt;stroke-linejoin:miter;stroke:rgb(0%,0%,0%);stroke-opacity:1;stroke-miterlimit:10;" d="M 223.800781 136.367188 L 238.214844 151.6875 "/>
<path style="fill:none;stroke-width:1.2;stroke-linecap:butt;stroke-linejoin:miter;stroke:rgb(0%,0%,0%);stroke-opacity:1;stroke-miterlimit:10;" d="M 228.847656 134.507812 L 240.378906 146.765625 "/>
<path style="fill:none;stroke-width:1.2;stroke-linecap:butt;stroke-linejoin:miter;stroke:rgb(0%,0%,0%);stroke-opacity:1;stroke-miterlimit:10;" d="M 229.863281 116.226562 L 223.800781 136.367188 "/>
<path style="fill:none;stroke-width:1.2;stroke-linecap:butt;stroke-linejoin:miter;stroke:rgb(0%,0%,0%);stroke-opacity:1;stroke-miterlimit:10;" d="M 238.214844 151.6875 L 258.6875 146.867188 "/>
<path style="fill:none;stroke-width:1.2;stroke-linecap:butt;stroke-linejoin:miter;stroke:rgb(0%,0%,0%);stroke-opacity:1;stroke-miterlimit:10;" d="M 258.6875 146.867188 L 264.75 126.722656 "/>
<path style="fill:none;stroke-width:1.2;stroke-linecap:butt;stroke-linejoin:miter;stroke:rgb(0%,0%,0%);stroke-opacity:1;stroke-miterlimit:10;" d="M 254.554688 143.425781 L 259.40625 127.3125 "/>
<path style="fill:none;stroke-width:1.2;stroke-linecap:butt;stroke-linejoin:miter;stroke:rgb(0%,0%,0%);stroke-opacity:1;stroke-miterlimit:10;" d="M 264.75 126.722656 L 250.339844 111.402344 "/>
<path style="fill:none;stroke-width:1.2;stroke-linecap:butt;stroke-linejoin:miter;stroke:rgb(0%,0%,0%);stroke-opacity:1;stroke-miterlimit:10;" d="M 250.339844 111.402344 L 229.863281 116.226562 "/>
<path style="fill:none;stroke-width:1.2;stroke-linecap:butt;stroke-linejoin:miter;stroke:rgb(0%,0%,0%);stroke-opacity:1;stroke-miterlimit:10;" d="M 249.425781 116.703125 L 233.046875 120.558594 "/>
<path style="fill:none;stroke-width:1.2;stroke-linecap:butt;stroke-linejoin:miter;stroke:rgb(0%,0%,0%);stroke-opacity:1;stroke-miterlimit:10;" d="M 146.28125 168.199219 L 132.550781 184.136719 "/>
<path style="fill:none;stroke-width:1.2;stroke-linecap:butt;stroke-linejoin:miter;stroke:rgb(0%,0%,0%);stroke-opacity:1;stroke-miterlimit:10;" d="M 132.550781 184.136719 L 139.484375 203.992188 "/>
<path style="fill:none;stroke-width:1.2;stroke-linecap:butt;stroke-linejoin:miter;stroke:rgb(0%,0%,0%);stroke-opacity:1;stroke-miterlimit:10;" d="M 128.570312 187.753906 L 134.121094 203.640625 "/>
<path style="fill:none;stroke-width:1.2;stroke-linecap:butt;stroke-linejoin:miter;stroke:rgb(0%,0%,0%);stroke-opacity:1;stroke-miterlimit:10;" d="M 111.886719 180.210938 L 132.550781 184.136719 "/>
<path style="fill:none;stroke-width:1.2;stroke-linecap:butt;stroke-linejoin:miter;stroke:rgb(0%,0%,0%);stroke-opacity:1;stroke-miterlimit:10;" d="M 139.484375 203.992188 L 125.753906 219.929688 "/>
<path style="fill:none;stroke-width:1.2;stroke-linecap:butt;stroke-linejoin:miter;stroke:rgb(0%,0%,0%);stroke-opacity:1;stroke-miterlimit:10;" d="M 125.753906 219.929688 L 105.089844 216.003906 "/>
<path style="fill:none;stroke-width:1.2;stroke-linecap:butt;stroke-linejoin:miter;stroke:rgb(0%,0%,0%);stroke-opacity:1;stroke-miterlimit:10;" d="M 124.613281 214.671875 L 108.082031 211.535156 "/>
<path style="fill:none;stroke-width:1.2;stroke-linecap:butt;stroke-linejoin:miter;stroke:rgb(0%,0%,0%);stroke-opacity:1;stroke-miterlimit:10;" d="M 105.089844 216.003906 L 98.15625 196.148438 "/>
<path style="fill:none;stroke-width:1.2;stroke-linecap:butt;stroke-linejoin:miter;stroke:rgb(0%,0%,0%);stroke-opacity:1;stroke-miterlimit:10;" d="M 98.15625 196.148438 L 111.886719 180.210938 "/>
<path style="fill:none;stroke-width:1.2;stroke-linecap:butt;stroke-linejoin:miter;stroke:rgb(0%,0%,0%);stroke-opacity:1;stroke-miterlimit:10;" d="M 103.277344 197.785156 L 114.261719 185.035156 "/>
</g>
</svg>

<svg xmlns="http://www.w3.org/2000/svg" xmlns:xlink="http://www.w3.org/1999/xlink" width="300pt" height="300pt" viewBox="0 0 300 300"><defs><symbol overflow="visible"><path d="M.453 1.594v-7.938h4.5v7.938zm.5-.5h3.5v-6.938h-3.5zm0 0"/></symbol><symbol overflow="visible" id="a"><path d="M3.547-5.953c-.65 0-1.164.242-1.547.72-.375.48-.563 1.13-.563 1.952 0 .835.188 1.49.563 1.967.383.48.898.72 1.547.72.644 0 1.156-.24 1.53-.72.376-.476.564-1.132.564-1.968 0-.822-.187-1.474-.562-1.954-.375-.477-.887-.72-1.53-.72zm0-.734c.914 0 1.648.312 2.203.937.55.617.828 1.438.828 2.47 0 1.042-.277 1.87-.828 2.483-.555.617-1.29.922-2.203.922-.93 0-1.668-.305-2.22-.922C.774-1.41.5-2.237.5-3.28c0-1.033.273-1.853.828-2.47.55-.625 1.29-.938 2.22-.938zm0 0"/></symbol><symbol overflow="visible" id="b"><path d="M.89-6.563H2.08l2.906 5.485v-5.484h.86V0H4.656L1.75-5.484V0H.89zm0 0"/></symbol></defs><g><path fill="#fff" d="M0 0h300v300H0z"/><path d="M98.633 184.348l-12.73-16.743M85.902 167.605l17.985-10.914M85.902 167.605l-15.32 14.41M69.97 153.875l15.932 13.73M103.887 156.69l20.14 6.064M107.324 152.56l16.114 4.85M99.063 136.22l4.824 20.47M124.027 162.754l15.32-14.41M139.348 148.344l20.96 1.742M139.348 148.344l6.933 19.855" stroke-width="1.2" stroke="#000" stroke-miterlimit="10" fill="none"/><path d="M134.527 127.87l2.41 10.235" stroke-width="1.2" stroke="#00f" stroke-miterlimit="10" fill="none"/><path d="M136.938 138.105l2.41 10.24M158.19 151.367l5.458 8.992" stroke-width="1.2" stroke="#000" stroke-miterlimit="10" fill="none"/><path d="M163.648 160.36l5.457 8.992" stroke-width="1.2" stroke="#f00" stroke-miterlimit="10" fill="none"/><path d="M162.422 148.8l5.457 8.993" stroke-width="1.2" stroke="#000" stroke-miterlimit="10" fill="none"/><path d="M167.88 157.793l5.456 8.992" stroke-width="1.2" stroke="#f00" stroke-miterlimit="10" fill="none"/><path d="M160.31 150.086l4.065-9.7" stroke-width="1.2" stroke="#000" stroke-miterlimit="10" fill="none"/><path d="M164.375 140.387l4.066-9.7" stroke-width="1.2" stroke="#00f" stroke-miterlimit="10" fill="none"/><path d="M167.22 162.566h8v11h-8zm0 0" fill="#fff"/><use xlink:href="#a" x="167.219" y="171.229" fill="#f00"/><path d="M168.44 130.688l-7.963-6.864" stroke-width="1.2" stroke="#00f" stroke-miterlimit="10" fill="none"/><path d="M160.477 123.824l-7.97-6.867" stroke-width="1.2" stroke="#000" stroke-miterlimit="10" fill="none"/><path d="M168.44 130.688l10.24-2.41" stroke-width="1.2" stroke="#00f" stroke-miterlimit="10" fill="none"/><path d="M178.68 128.277l10.238-2.41" stroke-width="1.2" stroke="#000" stroke-miterlimit="10" fill="none"/><path d="M165.44 125.188h7v11h-7zm0 0" fill="#fff"/><use xlink:href="#b" x="165.441" y="133.851" fill="#00f"/><path d="M154.973 117.164l.87-10.484" stroke-width="1.2" stroke="#000" stroke-miterlimit="10" fill="none"/><path d="M155.844 106.68l.87-10.48" stroke-width="1.2" stroke="#f00" stroke-miterlimit="10" fill="none"/><path d="M150.043 116.754l.87-10.48" stroke-width="1.2" stroke="#000" stroke-miterlimit="10" fill="none"/><path d="M150.914 106.273l.87-10.484" stroke-width="1.2" stroke="#f00" stroke-miterlimit="10" fill="none"/><path d="M152.508 116.957l-8.992 5.457" stroke-width="1.2" stroke="#000" stroke-miterlimit="10" fill="none"/><path d="M143.516 122.414l-8.99 5.457" stroke-width="1.2" stroke="#00f" stroke-miterlimit="10" fill="none"/><path d="M150.25 90.496h8v11h-8zm0 0" fill="#fff"/><use xlink:href="#a" x="150.25" y="99.159" fill="#f00"/><path d="M134.527 127.87l-10.074-3.03" stroke-width="1.2" stroke="#00f" stroke-miterlimit="10" fill="none"/><path d="M124.453 124.84l-10.07-3.03" stroke-width="1.2" stroke="#000" stroke-miterlimit="10" fill="none"/><path d="M131.527 122.37h7v11h-7zm0 0" fill="#fff"/><use xlink:href="#b" x="131.527" y="131.034" fill="#00f"/><path d="M114.383 121.81l-15.32 14.41M99.063 136.22l-20.96-1.743M96.56 140.977l-16.77-1.395M78.102 134.477l-8.133 19.398M78.102 134.477l-10.91-17.98M69.402 151.465l-10.238 2.41" stroke-width="1.2" stroke="#000" stroke-miterlimit="10" fill="none"/><path d="M59.164 153.875l-10.238 2.41" stroke-width="1.2" stroke="#f00" stroke-miterlimit="10" fill="none"/><path d="M70.535 156.285l-10.238 2.41" stroke-width="1.2" stroke="#000" stroke-miterlimit="10" fill="none"/><path d="M60.297 158.695l-10.234 2.41" stroke-width="1.2" stroke="#f00" stroke-miterlimit="10" fill="none"/><path d="M41.496 153.195h8v11h-8zm0 0" fill="#fff"/><use xlink:href="#a" x="41.496" y="161.858" fill="#f00"/><path d="M67.19 116.496l10.12-18.44M63.863 112.27l8.094-14.75M46.16 116.953l21.03-.457M77.31 98.055L66.394 80.07M66.395 80.07l-21.028.46M64.402 85.066l-16.824.368M45.367 80.53L35.25 98.974M35.25 98.973l10.91 17.98M40.57 98.203l8.73 14.387M188.918 125.867l14.41 15.32M203.328 141.188l20.473-4.82M223.8 136.367l14.415 15.32M228.848 134.508l11.53 12.258M229.863 116.227l-6.062 20.14M238.215 151.688l20.472-4.82M258.688 146.867l6.062-20.144M254.555 143.426l4.85-16.113M264.75 126.723l-14.41-15.32M250.34 111.402l-20.477 4.825M249.426 116.703l-16.38 3.856M146.28 168.2l-13.73 15.937M132.55 184.137l6.934 19.855M128.57 187.754l5.55 15.887M111.887 180.21l20.664 3.927M139.484 203.992l-13.73 15.938M125.754 219.93l-20.664-3.926M124.613 214.672l-16.53-3.137M105.09 216.004l-6.934-19.856M98.156 196.148l13.73-15.937M103.277 197.785l10.985-12.75" stroke-width="1.2" stroke="#000" stroke-miterlimit="10" fill="none"/></g></svg>
